svg/icon/powr.svg

<svg xmlns="http://www.w3.org/2000/svg" xmlns:xlink="http://www.w3.org/1999/xlink" width="32" height="32" viewBox="0 0 32 32"><defs><linearGradient id="powr-c" x1="50%" x2="50%" y1="0%" y2="100%"><stop offset="0%" stop-color="#FFF" stop-opacity=".5"/><stop offset="100%" stop-opacity=".5"/></linearGradient><circle id="powr-b" cx="16" cy="15" r="15"/><filter id="powr-a" width="111.7%" height="111.7%" x="-5.8%" y="-4.2%" filterUnits="objectBoundingBox"><feOffset dy=".5" in="SourceAlpha" result="shadowOffsetOuter1"/><feGaussianBlur in="shadowOffsetOuter1" result="shadowBlurOuter1" stdDeviation=".5"/><feComposite in="shadowBlurOuter1" in2="SourceAlpha" operator="out" result="shadowBlurOuter1"/><feColorMatrix in="shadowBlurOuter1" values="0 0 0 0 0 0 0 0 0 0 0 0 0 0 0 0 0 0 0.199473505 0"/></filter><path id="powr-e" d="M27.9951649,14.9544533 C28.015879,15.0486223 27.9685716,15.1446418 27.8813401,15.1853524 L27.8053201,15.2207172 L25.4987435,17.5332039 L26.3925932,20.8777118 C26.421921,20.9874386 26.3570443,21.1001124 26.2475947,21.1295145 L23.0391015,21.9913598 L22.1544125,25.3015994 C22.1299384,25.3935067 22.0470138,25.4540929 21.9565008,25.4540929 C21.9389314,25.4540929 21.9210203,25.4517627 21.9032458,25.4469651 L18.5132481,24.536322 L16.1158851,26.9397565 C16.0758242,26.9799188 16.0233212,27 15.9708866,27 C15.9183836,27 15.8658806,26.9799188 15.8258881,26.9397565 L13.4573744,24.5653129 L10.1752539,25.4469651 C10.1574795,25.4517627 10.1396366,25.4540929 10.1220673,25.4540929 C10.031486,25.4540929 9.94862968,25.3935067 9.92408726,25.3015994 L9.03932986,21.9913598 L5.83090502,21.1295145 C5.77833366,21.115396 5.73355572,21.0809908 5.70634714,21.0337692 C5.67913856,20.9864791 5.67182369,20.9304163 5.68583816,20.8777118 L6.55083858,17.6413544 L4.06009131,15.1442306 C4.02160279,15.1056446 4,15.0534198 4,14.9988649 C4,14.9443099 4.02160279,14.8920166 4.06009131,14.8534992 L6.48247531,12.4249803 L5.6174749,9.18855435 C5.60346043,9.13584986 5.6107753,9.07978708 5.63798388,9.0325655 C5.66519246,8.98534392 5.7099704,8.95087011 5.76254175,8.93675161 L9.11828944,8.03529232 L9.99245053,4.7646667 C10.0065334,4.71196221 10.0409201,4.66707087 10.0880224,4.63979338 C10.135193,4.61251589 10.1911825,4.6051825 10.2436172,4.61923246 L13.4179287,5.47196237 L15.8258881,3.0579047 C15.9028651,2.98066417 16.0390448,2.98073271 16.1158851,3.0579047 L18.5526937,5.50088473 L21.8348825,4.61923246 C21.8873855,4.60511396 21.9434434,4.61251589 21.9905457,4.63979338 C22.037648,4.66707087 22.0719664,4.71196221 22.0860492,4.7646667 L22.1092243,4.85143379 C22.1142149,4.8644557 22.1177697,4.87795738 22.1200257,4.8919388 L22.9602103,8.03529232 L26.315958,8.93675161 C26.4254076,8.96615373 26.4902843,9.07889611 26.4609565,9.18855435 L25.5671067,12.5330622 L27.82412,14.7957915 C27.9074548,14.8078539 27.9765017,14.8700164 27.9951649,14.9544533 Z M25.3761681,17.0745583 L26.7217623,15.7255563 L25.204508,16.4325093 L25.3761681,17.0745583 Z M25.8673582,20.5011043 L25.1639002,17.8689638 L23.766555,19.2697107 L23.7664867,19.2700534 L25.8673582,20.5011043 Z M23.6564218,19.6818201 L23.1616768,21.5327827 L25.6668487,20.8598238 L23.6564218,19.6818201 Z M21.859425,24.8167729 L22.5816829,22.1142455 L20.6083772,22.6443746 L21.859425,24.8167729 Z M19.3554152,23.6920906 L18.8481598,24.2006307 L20.8366421,24.7348034 L19.3554152,23.6920906 Z M16.1759764,26.2980502 L18.0558295,24.4134362 L16.1759764,23.90846 L16.1759764,26.2980502 Z M15.7657968,23.9451955 L13.9148613,24.4424271 L15.7657968,26.2980502 L15.7657968,23.9451955 Z M10.5772299,24.9132722 L13.1225311,24.229553 L11.7585472,22.8621148 L10.5772299,24.9132722 Z M9.49681685,22.1142455 L10.0619076,24.2284565 L10.2316536,22.3116989 L9.49681685,22.1142455 Z M6.40789099,20.8588643 L8.91675452,21.5327827 L8.41770268,19.6656455 L6.40789099,20.8588643 Z M8.21398014,19.3087079 L6.88575023,17.9770457 L6.21223532,20.4971291 L8.21398014,19.3087079 Z M4.73442658,15.2387423 L6.67341392,17.1826402 L7.19297475,15.2387423 L4.73442658,15.2387423 Z M6.81355862,13.6635016 L6.60505065,12.8836259 L4.97069003,14.5221257 L6.81355862,13.6635016 Z M6.14195788,9.5620092 L6.81738696,12.0891519 L8.16721967,10.7359692 L6.14195788,9.5620092 Z M8.48039179,10.422004 L8.9957141,8.49393792 L6.34650078,9.20561992 L8.46747113,10.4349574 L8.48039179,10.422004 Z M10.2519575,5.38252236 L9.57577642,7.91233802 L11.4230886,7.41613447 L10.2519575,5.38252236 Z M12.5942881,6.2976204 L13.0830171,5.8077222 L11.1672733,5.29308236 L12.5942881,6.2976204 Z M15.7657968,3.69967956 L13.8754157,5.59484814 L15.7657968,6.10263433 L15.7657968,3.69967956 Z M16.1759764,6.13936985 L18.0952751,5.62383903 L16.1759764,3.69967956 L16.1759764,6.13936985 Z M21.571684,5.11571015 L18.8876737,5.8367131 L20.3259685,7.27865045 L21.571684,5.11571015 Z M21.8745332,7.7436014 L22.5027917,7.91240655 L22.0196685,6.10510165 L21.8745332,7.7436014 Z M25.7242739,9.20349529 L23.0827856,8.49393792 L23.5939378,10.4064462 L25.7242739,9.20349529 Z M23.8003265,10.761876 L25.2322635,12.1973024 L25.9385927,9.5544702 L23.8003265,10.761876 Z M27.2415282,14.7932557 L25.4445314,12.9916393 L24.9629806,14.7932557 L27.2415282,14.7932557 Z M24.8762959,15.2044741 L25.0966991,16.0292411 L26.8669659,15.2044741 L24.8762959,15.2044741 Z M24.5666103,16.2762463 L24.7191971,16.2051055 L24.6524062,15.9553589 L24.5666103,16.2762463 Z M24.4282431,16.7941759 L23.9788913,18.4753738 L25.0413249,17.4103182 L24.8269376,16.6083737 L24.4282431,16.7941759 Z M23.1865611,19.8512421 L20.9043901,22.1391243 L22.7042582,21.6556685 L23.1865611,19.8512421 Z M20.3199525,22.1435791 L23.398829,19.0569052 L23.9432057,17.0201404 L18.7601079,19.434952 L20.3199525,22.1435791 Z M20.231969,22.8131798 L19.6497874,23.3969043 L21.194182,24.4840287 L20.231969,22.8131798 Z M19.1407546,23.0386645 L19.3090649,23.1570269 L19.5320659,22.9334611 L19.1407546,23.0386645 Z M18.6241333,23.1773822 L16.8315801,23.658919 L18.3906728,24.0777449 L19.0146243,23.4522817 L18.6241333,23.1773822 Z M15.2469196,23.658919 L12.3596654,22.883361 L13.5799497,24.1066673 L15.2469196,23.658919 Z M10.6896191,21.7905481 L10.6707509,22.0039705 L10.9872728,22.0889556 L10.6896191,21.7905481 Z M10.3114335,21.4113362 L8.94204893,20.0385521 L9.37424151,21.6556685 L10.2685014,21.8958886 L10.3114335,21.4113362 Z M8.14965031,18.6626153 L7.42609349,15.955496 L7.00832556,17.5184686 L8.14965031,18.6626153 Z M7.12461148,14.8275239 L6.92129912,14.0667698 L5.28844249,14.8275239 L7.12461148,14.8275239 Z M7.58941333,13.7554775 L7.29893781,13.8908369 L7.42609349,14.3666166 L7.58941333,13.7554775 Z M7.72784895,13.2375479 L8.26805548,11.2163409 L6.9399623,12.5477975 L7.19112894,13.4875687 L7.72784895,13.2375479 Z M9.06045411,9.84040407 L10.9188412,7.97731053 L9.45320108,8.37105215 L9.06045411,9.84040407 Z M11.743644,7.15041884 L12.2998475,6.59280668 L10.8244999,5.55427459 L11.743644,7.15041884 Z M12.9041788,7.01828066 L12.6406384,6.83268408 L12.2913705,7.1829051 L12.9041788,7.01828066 Z M13.4208684,6.87949445 L15.2468512,6.38897942 L13.5405041,5.93060797 L12.935079,6.5374978 L13.4208684,6.87949445 Z M16.8317168,6.38897942 L19.6004292,7.13273645 L18.4301868,5.95959886 L16.8317168,6.38897942 Z M21.4078856,8.36330754 L21.4355043,8.05146691 L20.9728217,7.92714188 L21.4078856,8.36330754 Z M21.7860712,8.74251945 L23.0680875,10.0277826 L22.625367,8.37105215 L21.8377538,8.15948028 L21.7860712,8.74251945 Z M23.8604178,11.4035823 L24.6524062,14.3666851 L25.1096881,12.655948 L23.8604178,11.4035823 Z M18.0857043,18.2640076 L18.5541977,19.0774661 L24.0816413,16.5021423 L24.4285165,15.2044741 L21.2137339,15.2044741 L21.0513711,17.0380284 C21.0435094,17.1269201 20.9793163,17.2005968 20.8924949,17.2203353 C20.8773183,17.2237621 20.8621416,17.2254069 20.8471017,17.2254069 C20.7757304,17.2254069 20.7081192,17.1879861 20.6706561,17.1245899 L19.6726208,15.4357159 L18.0857043,18.2640076 Z M17.3020561,19.660848 L18.1807976,19.25148 L17.8520386,18.6805718 L17.3020561,19.660848 Z M13.8156662,19.290066 L18.7030929,22.7304563 L19.9858613,22.3859238 L18.3867077,19.6089659 L16.8976874,20.3027599 C16.8699319,20.3156448 16.8404673,20.3218816 16.8112762,20.3218816 C16.7552867,20.3218816 16.7004594,20.2989904 16.660672,20.2559495 C16.6002388,20.1904287 16.5888222,20.0932441 16.6325063,20.0154553 L17.5660751,18.3515286 L14.3352271,18.3877843 L13.8156662,19.290066 Z M13.6097561,19.6476204 L12.0408191,22.3720109 L16.0392499,23.4461134 L18.1864717,22.8693111 L13.6097561,19.6476204 Z M13.85853,18.3931302 L12.5621574,18.4077284 L13.4786353,19.0528616 L13.85853,18.3931302 Z M11.2698865,15.2387423 L10.7369265,21.2565125 L11.6705636,22.1924456 L13.2727252,19.4103474 L11.8054444,18.3775724 C11.7325691,18.3263072 11.7010537,18.2337145 11.7274419,18.1484552 C11.7537617,18.0631959 11.8319693,18.0046658 11.9210467,18.0037063 L13.9049487,17.9813635 L12.2843291,15.2387423 L11.2698865,15.2387423 Z M10.8581346,15.2387423 L7.65921223,15.2387423 L8.72971263,19.2441467 L10.3587409,20.877232 L10.8581346,15.2387423 Z M12.0412976,14.8275239 L11.4021011,13.7458138 L11.3063242,14.8275239 L12.0412976,14.8275239 Z M13.4905305,11.0061397 L8.07451908,13.529513 L7.7275755,14.8275239 L10.8945722,14.8275239 L11.0498252,13.0737459 C11.0577553,12.9848542 11.1219484,12.9111775 11.2087698,12.8914391 C11.2957962,12.8717006 11.3852837,12.9103551 11.4306086,12.9871844 L12.4334293,14.6842828 L14.0003838,11.891493 L13.4905305,11.0061397 Z M13.2846204,10.6485853 L11.6557288,7.82015656 L8.8481178,10.6348095 L8.21288633,13.0115148 L13.2846204,10.6485853 Z M18.2918879,10.8107424 L13.3419772,7.32642032 L12.0455362,7.67465378 L13.6580205,10.4746399 L15.2577894,9.72930656 C15.3385264,9.69174861 15.4342349,9.71059612 15.4947364,9.77611692 C15.5552379,9.84156919 15.5666546,9.9387538 15.5229705,10.0165426 L14.5866672,11.6852669 L17.8091065,11.6490112 L18.2918879,10.8107424 Z M18.497798,10.4532566 L20.0892265,7.68980032 L16.0392499,6.60185348 L13.8585984,7.18763411 L18.497798,10.4532566 Z M18.2858035,11.6436653 L19.4564561,11.6305063 L18.6289188,11.0479469 L18.2858035,11.6436653 Z M20.8019819,15.2044741 L20.0127964,15.2044741 L20.6990952,16.3659605 L20.8019819,15.2044741 Z M14.2341178,11.4749287 L14.8534206,10.37115 L13.8639307,10.8321258 L14.2341178,11.4749287 Z M17.796596,17.9406528 L19.4312984,15.0271704 L17.6856424,12.0729773 C17.6835232,12.0694135 17.6827712,12.0654383 17.6809254,12.0617374 L14.3544371,12.0991583 L12.67482,15.0927597 L14.3785694,17.9760176 L17.7773176,17.9379114 C17.7838121,17.9380484 17.7901015,17.9399675 17.796596,17.9406528 Z M21.7388322,9.27662363 L21.2501715,14.7932557 L24.3417635,14.7932557 L23.2804238,10.8220509 L21.7388322,9.27662363 Z M20.8384196,14.7932557 L21.3606466,8.89741172 L20.413952,7.94838817 L18.8347606,10.6904611 L20.2131691,11.6607309 C20.2860444,11.7119961 20.3175598,11.8045888 20.2911716,11.8898481 C20.2648518,11.9751074 20.1866442,12.0335689 20.0975668,12.034597 L18.1526319,12.0564601 L19.769765,14.7932557 L20.8384196,14.7932557 Z M21.4723521,7.63558803 L21.6319804,5.83328628 L20.7117424,7.43128102 L21.4723521,7.63558803 Z M10.6339031,22.4197123 L10.4692843,24.2784195 L11.4183032,22.6303932 L10.6339031,22.4197123 Z"/><filter id="powr-d" width="114.6%" height="114.6%" x="-7.3%" y="-5.2%" filterUnits="objectBoundingBox"><feOffset dy=".5" in="SourceAlpha" result="shadowOffsetOuter1"/><feGaussianBlur in="shadowOffsetOuter1" result="shadowBlurOuter1" stdDeviation=".5"/><feColorMatrix in="shadowBlurOuter1" values="0 0 0 0 0 0 0 0 0 0 0 0 0 0 0 0 0 0 0.204257246 0"/></filter></defs><g fill="none" fill-rule="evenodd"><g fill-rule="nonzero"><use fill="#000" filter="url(#powr-a)" xlink:href="#powr-b"/><use fill="#05BCA9" fill-rule="evenodd" xlink:href="#powr-b"/><use fill="url(#powr-c)" fill-rule="evenodd" style="mix-blend-mode:soft-light" xlink:href="#powr-b"/><circle cx="16" cy="15" r="14.5" stroke="#000" stroke-opacity=".097"/></g><use fill="#000" filter="url(#powr-d)" xlink:href="#powr-e"/><use fill="#FFF" xlink:href="#powr-e"/></g></svg>

<svg xmlns="http://www.w3.org/2000/svg" xmlns:xlink="http://www.w3.org/1999/xlink" width="32" height="32" viewBox="0 0 32 32"><defs><linearGradient id="c" x1="50%" x2="50%" y1="0%" y2="100%"><stop offset="0%" stop-color="#FFF" stop-opacity=".5"/><stop offset="100%" stop-opacity=".5"/></linearGradient><circle id="b" cx="16" cy="15" r="15"/><filter id="a" width="111.7%" height="111.7%" x="-5.8%" y="-4.2%" filterUnits="objectBoundingBox"><feOffset dy=".5" in="SourceAlpha" result="shadowOffsetOuter1"/><feGaussianBlur in="shadowOffsetOuter1" result="shadowBlurOuter1" stdDeviation=".5"/><feComposite in="shadowBlurOuter1" in2="SourceAlpha" operator="out" result="shadowBlurOuter1"/><feColorMatrix in="shadowBlurOuter1" values="0 0 0 0 0 0 0 0 0 0 0 0 0 0 0 0 0 0 0.199473505 0"/></filter><path id="e" d="M27.995 14.954a.206.206 0 0 1-.114.231l-.076.036-2.306 2.312.894 3.345a.206.206 0 0 1-.145.252l-3.209.861-.885 3.31a.205.205 0 0 1-.25.146l-3.39-.91-2.398 2.403a.204.204 0 0 1-.29 0l-2.369-2.375-3.282.882a.204.204 0 0 1-.25-.145l-.886-3.31-3.208-.862a.205.205 0 0 1-.145-.252l.865-3.237-2.49-2.497a.206.206 0 0 1 0-.29l2.421-2.429-.865-3.236a.206.206 0 0 1 .146-.252l3.355-.902.874-3.27a.206.206 0 0 1 .252-.146l3.174.853 2.408-2.414a.21.21 0 0 1 .29 0L18.553 5.5l3.282-.882a.205.205 0 0 1 .251.146l.023.086a.203.203 0 0 1 .011.04l.84 3.144 3.356.902c.11.03.174.142.145.252l-.894 3.344 2.257 2.263a.205.205 0 0 1 .171.158zm-2.619 2.12l1.346-1.348-1.517.707.171.642zm.491 3.427l-.703-2.632-1.397 1.4v.001l2.1 1.231zm-2.21-.82l-.495 1.852 2.505-.673-2.01-1.178zm-1.798 5.136l.723-2.703-1.974.53 1.251 2.173zm-2.504-1.125l-.507.509 1.989.534-1.482-1.043zm-3.179 2.606l1.88-1.885-1.88-.505v2.39zm-.41-2.353l-1.851.497 1.85 1.856v-2.353zm-5.189.968l2.546-.683-1.364-1.368-1.182 2.051zm-1.08-2.799l.565 2.114.17-1.916-.735-.198zm-3.09-1.255l2.51.674-.5-1.867-2.01 1.193zm1.807-1.55l-1.328-1.332-.674 2.52 2.002-1.188zm-3.48-4.07l1.94 1.944.519-1.944H4.734zm2.08-1.575l-.209-.78-1.634 1.638 1.843-.858zm-.672-4.102l.675 2.527 1.35-1.353-2.025-1.174zm2.338.86l.516-1.928-2.65.712 2.121 1.229.013-.013zm1.772-5.04l-.676 2.53 1.847-.496-1.171-2.033zm2.342.916l.489-.49-1.916-.515 1.427 1.005zM15.766 3.7l-1.89 1.895 1.89.508V3.7zm.41 2.44l1.92-.516-1.92-1.924v2.44zm5.396-1.024l-2.684.72 1.438 1.443 1.246-2.163zm.303 2.628l.628.168-.483-1.807-.145 1.639zm3.85 1.46l-2.642-.71.51 1.912 2.131-1.203zM23.8 10.761l1.432 1.435.707-2.643-2.139 1.208zm3.442 4.031l-1.797-1.801-.482 1.801h2.279zm-2.366.411l.22.825 1.771-.825h-1.99zm-.31 1.072l.153-.07-.067-.25-.085.32zm-.138.518l-.45 1.681 1.063-1.065-.214-.802-.399.186zm-1.241 3.057l-2.283 2.288 1.8-.483.483-1.805zm-2.867 2.293l3.079-3.087.544-2.037-5.183 2.415 1.56 2.709zm-.088.67l-.582.583 1.544 1.087-.962-1.67zm-1.091.225l.168.118.223-.224-.391.106zm-.517.138l-1.792.482 1.559.419.624-.626-.39-.275zm-3.377.482l-2.887-.776 1.22 1.224 1.667-.448zM10.69 21.79l-.02.213.317.085-.297-.298zm-.379-.38l-1.369-1.37.432 1.617.895.24.042-.485zM8.15 18.663l-.724-2.708-.418 1.563 1.142 1.145zm-1.025-3.835l-.204-.761-1.633.76h1.837zm.464-1.073l-.29.136.127.476.163-.612zm.139-.517l.54-2.022-1.328 1.332.251.94.537-.25zM9.06 9.84l1.859-1.863-1.466.394-.393 1.47zm2.684-2.69l.556-.557-1.476-1.039.92 1.596zm1.16-.132l-.263-.185-.35.35.613-.165zm.517-.139l1.826-.49-1.706-.458-.606.606.486.342zm3.41-.49l2.77.744-1.17-1.173-1.6.429zm4.577 1.974l.028-.312-.463-.124.435.436zm.378.38l1.282 1.285-.443-1.657-.787-.212-.052.584zm2.074 2.66l.792 2.964.458-1.711-1.25-1.252zm-5.774 6.861l.468.813 5.528-2.575.347-1.298h-3.215l-.163 1.834a.205.205 0 0 1-.38.087l-.998-1.69-1.587 2.829zm-.784 1.397l.879-.41-.329-.57-.55.98zm-3.486-.37l4.887 3.44 1.283-.345-1.6-2.777-1.488.694a.205.205 0 0 1-.265-.288l.933-1.663-3.23.036-.52.902zm-.206.357l-1.57 2.724 4 1.074 2.146-.577-4.576-3.221zm.249-1.255l-1.297.015.917.645.38-.66zm-2.59-3.154l-.532 6.018.934.935 1.602-2.782-1.468-1.032a.206.206 0 0 1 .116-.374l1.984-.023-1.62-2.742H11.27zm-.41 0h-3.2l1.07 4.005 1.63 1.633.5-5.638zm1.182-.411l-.639-1.082-.096 1.082h.735zm1.45-3.822L8.075 13.53l-.347 1.298h3.167l.155-1.754a.206.206 0 0 1 .38-.087l1.003 1.697L14 11.891l-.51-.885zm-.206-.357l-1.63-2.829-2.807 2.815-.635 2.377 5.072-2.363zm5.007.162l-4.95-3.485-1.296.349 1.612 2.8 1.6-.746a.205.205 0 0 1 .265.288l-.936 1.668 3.222-.036.483-.838zm.206-.358l1.591-2.763-4.05-1.088-2.18.586 4.639 3.265zm-.212 1.19l1.17-.012-.827-.583-.343.596zm2.516 3.561h-.79l.687 1.162.103-1.162zm-6.568-3.73l.62-1.103-.99.461.37.643zm3.563 6.467l1.634-2.914-1.745-2.954-.005-.011-3.327.037-1.68 2.994 1.705 2.883 3.398-.038c.007 0 .013.002.02.003zm3.942-8.664l-.489 5.516h3.092l-1.062-3.97-1.541-1.546zm-.9 5.516l.522-5.896-.947-.949-1.58 2.742 1.38.97a.206.206 0 0 1-.116.375l-1.945.021 1.617 2.737h1.068zm.633-7.157l.16-1.803-.92 1.598.76.205zM10.634 22.42l-.165 1.858.95-1.648-.785-.21z"/><filter id="d" width="114.6%" height="114.6%" x="-7.3%" y="-5.2%" filterUnits="objectBoundingBox"><feOffset dy=".5" in="SourceAlpha" result="shadowOffsetOuter1"/><feGaussianBlur in="shadowOffsetOuter1" result="shadowBlurOuter1" stdDeviation=".5"/><feColorMatrix in="shadowBlurOuter1" values="0 0 0 0 0 0 0 0 0 0 0 0 0 0 0 0 0 0 0.204257246 0"/></filter></defs><g fill="none" fill-rule="evenodd"><g fill-rule="nonzero"><use fill="#000" filter="url(#a)" xlink:href="#b"/><use fill="#05BCA9" fill-rule="evenodd" xlink:href="#b"/><use fill="url(#c)" fill-rule="evenodd" style="mix-blend-mode:soft-light" xlink:href="#b"/><circle cx="16" cy="15" r="14.5" stroke="#000" stroke-opacity=".097"/></g><use fill="#000" filter="url(#d)" xlink:href="#e"/><use fill="#FFF" xlink:href="#e"/></g></svg>
